svgs/app_manager.svg

<svg width="24" height="24" viewBox="0 0 24 24" fill="none" xmlns="http://www.w3.org/2000/svg">
<path d="M9.84937 14.1506C10.4162 14.7174 11.1331 15.0008 12 15.0008C12.8669 15.0008 13.5838 14.7174 14.1506 14.1506C14.7174 13.5838 15.0009 12.8669 15.0009 12C15.0009 11.1331 14.7174 10.4162 14.1506 9.84937C13.5838 9.28254 12.8669 8.99912 12 8.99912C11.1331 8.99912 10.4162 9.28254 9.84937 9.84937C9.28254 10.4162 8.99913 11.1331 8.99913 12C8.99913 12.8669 9.28254 13.5838 9.84937 14.1506Z" fill="#FFF1C0"/>
<path fill-rule="evenodd" clip-rule="evenodd" d="M4 2C2.89543 2 2 2.89543 2 4V20C2 21.1046 2.89543 22 4 22H20C21.1046 22 22 21.1046 22 20V4C22 2.89543 21.1046 2 20 2H4ZM14.0006 20.0023H9.99942L9.69933 17.5016C9.43259 17.4015 9.19919 17.2928 8.99913 17.1755C8.79907 17.0594 8.59901 16.9014 8.39896 16.7013L6.09829 17.7016L4.09772 14.3006L6.09829 12.8002C6.03161 12.5335 5.99826 12.2667 5.99826 12C5.99826 11.7332 6.03161 11.4665 6.09829 11.1998L4.09772 9.69932L6.09829 6.29834L8.39896 7.29863C8.59901 7.09857 8.79907 6.93986 8.99913 6.82249C9.19919 6.70646 9.43259 6.59843 9.69933 6.4984L9.99942 3.99768H14.0006L14.3007 6.4984C14.5674 6.59843 14.8008 6.70646 15.0009 6.82249C15.2009 6.93986 15.401 7.09857 15.601 7.29863L17.9017 6.29834L19.9023 9.69932L17.9017 11.1998C17.9684 11.4665 18.0017 11.7332 18.0017 12C18.0017 12.2667 17.9684 12.5335 17.9017 12.8002L19.9023 14.3006L17.9017 17.7016L15.601 16.7013C15.401 16.9014 15.2009 17.0594 15.0009 17.1755C14.8008 17.2928 14.5674 17.4015 14.3007 17.5016L14.0006 20.0023Z" fill="#FFF1C0"/>
</svg>

<svg xmlns="http://www.w3.org/2000/svg" viewBox="0 0 24 24"><path d="M4 2a2 2 0 0 0-2 2v16a2 2 0 0 0 2 2h16a2 2 0 0 0 2-2V4a2 2 0 0 0-2-2zm10 18.002h-4l-.3-2.5c-.267-.1-.5-.21-.7-.326a3.009 3.009 0 0 1-.601-.475l-2.3 1-2.001-3.4 2-1.5a3.288 3.288 0 0 1 0-1.601l-2-1.5 2-3.402 2.301 1c.2-.2.4-.358.6-.476.2-.116.434-.224.7-.324l.3-2.5h4.002l.3 2.5c.266.1.5.208.7.324.2.118.4.277.6.477l2.3-1 2.001 3.4-2 1.5a3.287 3.287 0 0 1 0 1.601l2 1.5-2 3.402-2.301-1c-.2.2-.4.357-.6.473-.2.118-.434.226-.7.327l-.3 2.5M9.85 14.15c.566.567 1.283.85 2.15.85s1.584-.283 2.15-.85c.567-.566.85-1.283.85-2.15s-.283-1.584-.85-2.15C13.585 9.282 12.868 9 12 9s-1.584.283-2.15.85C9.282 10.415 9 11.132 9 12s.283 1.584.85 2.15"/></svg>
